X:1
T:James Gibb editions
T:Quoniam tu illuminas - Draconio
%%score [ 1 2 3 4 ]
L:1/8
Q:1/4=140
M:4/4
K:C
V:1 treble nm="Soprano" snm="S"
V:2 treble nm="Alto" snm="A"
V:3 treble-8 nm="Tenor" snm="T"
V:4 bass nm="Bass" snm="B"
V:1
"^Quoniam tu illuminas""^Giovanni Andrea Draconio\n(1550?-99)" c6 c2 | c4 c4 | c4 c3 c | c4 c4 | %4
w: Quo- ni-|am tu|il- lu- mi-|nas lu-|
 c4 c4 |[M:4/4] d4 d2 (e2- | ed c4) B2 | c8 | A4 A4 | A4 A4 |[M:4/4] G4 G3 G | G4 A4- | %12
w: cer- nam|me- am: Do\-|* * * mi-|ne|De- us|me- us,|il- lu- mi-|na te\-|
 A2 c2 (ABcA | B2) (A4 ^G2) | A8 |] %15
w: * ne- bras * * *|* me\- *|as.|
V:2
 G6 G2 | G4 A4 | A4 A3 A | A4 A4 | A4 A4 |[M:4/4] A4 B4 | G6 G2 | G8 | F4 F4 | F4 F4 | %10
w: Quo- ni-|am tu|il- lu- mi-|nas lu-|cer- nam|me- am:|Do- mi-|ne|De- us|me- us,|
[M:4/4] E4 E3 E | E4 F4- | F2 F2 F4- | F4 E4 | E8 |] %15
w: il- lu- mi-|na te\-|* ne- bras|* me-|as.|
V:3
 e6 e2 | e4 f4 | f4 f3 f | f4 f4 | f4 f4 |[M:4/4][K:treble-8] ^f4 g2 (g2- | %6
w: Quo- ni-|am tu|il- lu- mi-|nas lu-|cer- nam|me- am: Do\-|
 g!courtesy!=f e2 d2) d2 | e8 | c4 c4 | c4 c4 |[M:4/4][K:treble-8] c4 c3 c | c4 c4- | c2 A2 c4 | %13
w: * * * * mi-|ne|De- us|me- us,|il- lu- mi-|na te\-|* ne- bras|
 (d3 c B4) | A8 |] %15
w: me\- * *|as.|
V:4
 C6 C2 | C4 F,4 | F,4 F,3 F, | F,4 F,4 | F,4 F,4 |[M:4/4] D,4 G,4 | (E,3 F, G,2) G,2 | C,8 | %8
w: Quo- ni-|am tu|il- lu- mi-|nas lu-|cer- nam|me- am:|Do\- * * mi-|ne|
 F,4 F,4 | F,4 F,4 |[M:4/4] C,4 C,3 C, | C,4 F,4- | F,2 F,2 (F,3 E, | D,4) E,4 | A,,8 |] %15
w: De- us|me- us,|il- lu- mi-|na te\-|* ne- bras *|* me-|as.|

